X:112
T:Andrew Carr
Z:Jack Campin, http://www.campin.me.uk/
S:Northumbrian Minstrelsy
M:9/8
L:1/8
K:G
B2d dBd dBG|B2e efg f2d|B2d dBd def|g2G GAB A2G:|
g2e dBG dBG|g2e ege f2d|gfe dBd def|g2G GAB A2G:|

